icons/op-rss-24.svg

<svg width="24" height="24" viewBox="0 0 24 24" fill="none" xmlns="http://www.w3.org/2000/svg">
<path d="M8.28346 17.8583C8.28346 19.0551 7.33858 20 6.14173 20C4.97638 20 4 19.0551 4 17.8583C4 16.6929 4.97638 15.7165 6.14173 15.7165C7.33858 15.7165 8.28346 16.6929 8.28346 17.8583ZM14.5197 19.874H11.685C11.6535 17.8583 10.8661 16 9.44882 14.5512C8.0315 13.1339 6.14173 12.3465 4.12598 12.315V9.48031C9.82677 9.5748 14.4252 14.1732 14.5197 19.874ZM20 19.874H17.1969C17.1024 12.6929 11.3071 6.89764 4.15748 6.80315V4C12.8504 4.06299 19.9055 11.1496 20 19.874Z" fill="black"/>
</svg>

<svg xmlns="http://www.w3.org/2000/svg" width="24" height="24" viewBox="0 0 24 24"><path d="M8.283 17.858A2.123 2.123 0 0 1 6.142 20 2.144 2.144 0 0 1 4 17.858c0-1.165.976-2.142 2.142-2.142 1.197 0 2.141.977 2.141 2.142Zm6.237 2.016h-2.835c-.032-2.016-.819-3.874-2.236-5.323a7.649 7.649 0 0 0-5.323-2.236V9.48A10.571 10.571 0 0 1 14.52 19.874Zm5.48 0h-2.803c-.095-7.181-5.89-12.976-13.04-13.071V4C12.85 4.063 19.905 11.15 20 19.874Z"/></svg>
